src/assets/images/components/page/PageHeader/menu-dropdown-usecase-icon-developers.svg

<svg fill="none" height="28" viewBox="0 0 28 28" width="28" xmlns="http://www.w3.org/2000/svg"><path d="m13.9873 13.072 11.1193-6.23165c-.1885-.18844-.4163-.33961-.6931-.48867l-8.2207-4.62023c-.7296-.41227-1.4761-.63282-2.2034-.63282-.7389 0-1.4854.22055-2.215.63282l-8.21112 4.62023c-.2768.14906-.50461.30023-.70476.48867zm-.8634 13.6385v-12.1163l-11.04492-6.23909c-.05976.2325-.07898.48-.07898.78727v9.34622c0 1.6739.58711 2.3468 1.71586 2.9848l9.08414 5.1c.1041.0637.2102.1115.3239.1371zm1.7173 0c.1136-.0256.2177-.0734.3335-.1371l9.0745-5.1c1.1384-.638 1.7159-1.3109 1.7159-2.9848v-9.34622c0-.30727-.0214-.55477-.079-.78727l-11.0449 6.23909z" fill="#000"/></svg>

<svg width="28" height="28" viewBox="0 0 28 28" fill="none" xmlns="http://www.w3.org/2000/svg">
<path d="M13.9873 13.072L25.1066 6.84035C24.9181 6.65191 24.6903 6.50074 24.4135 6.35168L16.1928 1.73145C15.4632 1.31918 14.7167 1.09863 13.9894 1.09863C13.2505 1.09863 12.504 1.31918 11.7744 1.73145L3.56328 6.35168C3.28648 6.50074 3.05867 6.65191 2.85852 6.84035L13.9873 13.072ZM13.1239 26.7105V14.5942L2.07898 8.35511C2.01922 8.58761 2 8.83511 2 9.14238V18.4886C2 20.1625 2.58711 20.8354 3.71586 21.4734L12.8 26.5734C12.9041 26.6371 13.0102 26.6849 13.1239 26.7105ZM14.8412 26.7105C14.9548 26.6849 15.0589 26.6371 15.1747 26.5734L24.2492 21.4734C25.3876 20.8354 25.9651 20.1625 25.9651 18.4886V9.14238C25.9651 8.83511 25.9437 8.58761 25.8861 8.35511L14.8412 14.5942V26.7105Z" fill="black"/>
</svg>
